src/images/advantages/icon-advantages-3.svg

<svg width="61" height="63" viewBox="0 0 61 63" fill="none" xmlns="http://www.w3.org/2000/svg">
<g clip-path="url(#clip0)">
<path d="M13.6772 28.6776C13.6772 29.1237 13 29.1237 13 28.6776C13 19.1926 20.6926 11.5 30.1776 11.5C39.6667 11.5 47.3552 19.1926 47.3552 28.6776C47.3552 29.1237 46.6821 29.1237 46.6821 28.6776C46.6821 22.2664 36.1468 22.2624 36.1468 28.6776C36.1468 29.1237 35.4534 29.1237 35.4534 28.6776C35.4534 22.2826 24.9019 22.2826 24.9019 28.6776C24.9019 29.1237 24.2084 29.1237 24.2084 28.6776C24.2084 22.2948 13.6772 22.2502 13.6772 28.6776ZM24.2693 26.1878C24.4517 22.4976 25.0316 19.1886 25.8751 16.6622C26.5483 14.6549 27.3998 13.1302 28.365 12.2745C21.1225 13.0653 15.2587 18.556 13.9489 25.6768C16.4428 22.0799 22.2011 22.3678 24.2693 26.1878ZM35.4006 26.0215C35.2141 22.4732 34.6504 19.2981 33.8394 16.8771C31.747 10.6119 28.6083 10.6119 26.5158 16.8771C25.7048 19.2981 25.1452 22.4732 24.9546 26.0215C27.2052 22.1975 33.15 22.1975 35.4006 26.0215ZM46.4063 25.6768C45.1006 18.556 39.2368 13.0653 31.9903 12.2745C32.9594 13.1302 33.807 14.6549 34.4801 16.6622C35.3236 19.1886 35.9035 22.4976 36.086 26.1878C38.1663 22.3475 43.9408 22.1204 46.4063 25.6768Z" fill="#FF6B09"/>
<path d="M27.9229 36.5374V33.0493C27.2943 33.467 26.7996 34.1119 26.7996 34.8988C26.7996 35.6654 27.3025 36.1724 27.9229 36.5374ZM28.6001 37.6204C27.3957 37.0688 26.1265 36.4239 26.1265 34.8988C26.1265 33.3251 27.3227 32.5382 28.6001 31.9501V37.6204Z" fill="#FF6B09"/>
<path d="M32.4324 41.8V45.328C33.0691 44.9063 33.5679 44.2575 33.5679 43.4708C33.5679 42.6962 33.0569 42.1731 32.4324 41.8ZM31.7593 40.7133C32.9677 41.2729 34.2451 41.9379 34.2451 43.4708C34.2451 45.0482 33.0407 45.8349 31.7593 46.4189V40.7133Z" fill="#FF6B09"/>
<path d="M32.4323 29.0791C35.206 29.7198 38.0568 31.7961 38.0568 34.8984C38.0568 37.5546 33.5677 37.4572 33.5677 34.8984C33.5677 34.1076 33.069 33.4588 32.4323 33.0411V38.0047C34.9992 38.8441 38.0649 40.3486 38.0649 43.4712C38.0649 46.5775 35.2141 48.6497 32.4323 49.2864C32.4201 52.2427 27.9311 52.2386 27.923 49.2824C26.3415 48.9174 24.9668 48.1793 23.9733 47.202C22.9311 46.172 22.3147 44.8784 22.3147 43.4712C22.3147 40.8555 26.7997 40.8555 26.7997 43.4712C26.7997 44.2538 27.2944 44.8986 27.923 45.3163V40.3568C25.3763 39.5335 22.2944 37.9844 22.2944 34.8903C22.2944 31.784 25.1452 29.7117 27.923 29.075C27.9351 26.1188 32.4242 26.1228 32.4323 29.0791ZM28.6002 29.0872V29.6266C25.9603 30.1497 22.9676 31.8407 22.9676 34.8903C22.9676 37.8222 26.2523 39.1361 28.6002 39.862V46.4153C27.3309 45.8354 26.1265 45.0527 26.1265 43.4712C26.1265 41.7436 22.9879 41.7436 22.9879 43.4712C22.9879 44.6918 23.5313 45.8192 24.4477 46.7194C25.6115 47.8711 27.0227 48.4186 28.6002 48.7308V49.2742C28.6002 51.3546 31.7592 51.3546 31.7592 49.2742V48.7349C34.4072 48.2077 37.3877 46.5167 37.3877 43.4712C37.3877 40.5109 34.1111 39.2375 31.7592 38.4954V32.4693V31.9462C33.0325 32.5261 34.245 33.3087 34.245 34.8984C34.245 36.5813 37.3796 36.6503 37.3796 34.8984C37.3796 31.8529 34.4031 30.1578 31.7592 29.6306V29.0872C31.7592 27.0069 28.6002 27.0069 28.6002 29.0872Z" fill="#FF6B09"/>
</g>
<path d="M59.8235 9.73529V1.5H1V61.5H59.8235V53.2647" stroke="#FF6B09" stroke-width="2"/>
<defs>
<clipPath id="clip0">
<rect width="35" height="40" fill="white" transform="translate(13 11.5)"/>
</clipPath>
</defs>
</svg>

<svg width="61" height="63" fill="none" xmlns="http://www.w3.org/2000/svg"><g clip-path="url(#clip0)" fill="#FF6B09"><path d="M13.677 28.678c0 .446-.677.446-.677 0C13 19.193 20.693 11.5 30.178 11.5c9.489 0 17.177 7.693 17.177 17.178 0 .446-.673.446-.673 0 0-6.412-10.535-6.416-10.535 0 0 .446-.694.446-.694 0 0-6.395-10.551-6.395-10.551 0 0 .446-.694.446-.694 0 0-6.383-10.53-6.428-10.53 0zm10.592-2.49c.183-3.69.763-7 1.606-9.526.673-2.007 1.525-3.532 2.49-4.387-7.242.79-13.106 6.281-14.416 13.402 2.494-3.597 8.252-3.31 10.32.51zm11.132-.166c-.187-3.549-.75-6.724-1.562-9.145-2.092-6.265-5.23-6.265-7.323 0-.811 2.421-1.37 5.596-1.561 9.145 2.25-3.824 8.195-3.824 10.446 0zm11.005-.345c-1.305-7.121-7.17-12.612-14.416-13.402.97.855 1.817 2.38 2.49 4.387.844 2.527 1.424 5.836 1.606 9.526 2.08-3.84 7.855-4.068 10.32-.511zM27.923 36.537V33.05c-.629.418-1.123 1.063-1.123 1.85 0 .766.502 1.273 1.123 1.638zm.677 1.083c-1.204-.551-2.474-1.196-2.474-2.721 0-1.574 1.197-2.36 2.474-2.949v5.67zM32.432 41.8v3.528c.637-.422 1.136-1.07 1.136-1.857 0-.775-.511-1.298-1.136-1.671zm-.673-1.087c1.209.56 2.486 1.225 2.486 2.758 0 1.577-1.204 2.364-2.486 2.948v-5.706z"/><path d="M32.432 29.08c2.774.64 5.625 2.716 5.625 5.818 0 2.657-4.49 2.56-4.49 0 0-.79-.498-1.44-1.135-1.857v4.964c2.567.84 5.633 2.344 5.633 5.466 0 3.107-2.85 5.179-5.633 5.815-.012 2.957-4.5 2.953-4.509-.004-1.581-.365-2.956-1.103-3.95-2.08-1.042-1.03-1.658-2.324-1.658-3.73 0-2.617 4.485-2.617 4.485 0 0 .782.494 1.427 1.123 1.844v-4.96c-2.547-.823-5.629-2.372-5.629-5.466 0-3.106 2.851-5.178 5.629-5.815.012-2.956 4.501-2.952 4.51.004zm-3.832.007v.54c-2.64.523-5.632 2.214-5.632 5.263 0 2.932 3.284 4.246 5.632 4.972v6.553c-1.27-.58-2.474-1.362-2.474-2.944 0-1.727-3.138-1.727-3.138 0 0 1.22.543 2.348 1.46 3.248 1.163 1.152 2.575 1.7 4.152 2.012v.543c0 2.08 3.16 2.08 3.16 0v-.54c2.647-.526 5.628-2.217 5.628-5.263 0-2.96-3.277-4.233-5.629-4.976V31.946c1.273.58 2.486 1.363 2.486 2.952 0 1.683 3.135 1.752 3.135 0 0-3.045-2.977-4.74-5.62-5.267v-.544c0-2.08-3.16-2.08-3.16 0z"/></g><path d="M59.824 9.735V1.5H1v60h58.824v-8.235" stroke="#FF6B09" stroke-width="2"/><defs><clipPath id="clip0"><path fill="#fff" transform="translate(13 11.5)" d="M0 0h35v40H0z"/></clipPath></defs></svg>
